X:1
T:Title
%%score { 1 | 2 }
L:1/8
M:4/4
K:F
V:1 treble nm="Grand Piano"
V:2 bass 
V:1
 z4 z2[Q:1/4=100] A>B | c3 d c2 A>[EG] | [DF]3 [DG] [DF]2 D>D | C>F F>G A>B c>A |[M:3/4] [EG]6 | %5
[M:1/4] A>B |[M:4/4] c3 d c2 A>[EG] | [DF]3 [DG] [DF]2 D>D | C>F A>[Fc] [Ec]>[EB] [EG]>E | %9
[M:3/4] F6 |[M:1/4] C>F |[M:4/4] A>A A>A A2 F>A | [DFB]>[DFB] [DFB]>[DFB] [DFB]2 [DFB]>[DFB] | %13
 A3 c d>c A>F |[M:3/4] [EG]6 |[M:1/4] C>F |[M:4/4] A>A A>A A2 F>A | %17
[M:9/8] [DFB]>[DFB][DFB]- [DFB]/[DFB]/ [Fd]2- [Fd][Fd]>[Fd] | %18
[M:4/4] [Fc]>[B,FB] [CFA]>[DFB] [CFA]2 [B,CG]2 |[M:3/4] [A,CF]6 |] %20
V:2
 z4 z2 [F,F]>[F,G,F] | [F,A,F]3 [F,B,F] [F,A,F]2 [F,CF]>[C,B,] | %2
 [D,A,]3 [D,A,] [B,,B,]2 [B,,F,B,]>[D,F,B,] | %3
 [F,A,]>[F,A,C] [F,A,C]>[F,B,C] [F,CF]>[F,B,F] [F,A,F]>[F,CF] |[M:3/4] [C,C]6 | %5
[M:1/4] [F,F]>[F,G,F] |[M:4/4] [F,A,F]3 [F,B,F] [F,A,F]2 [F,CF]>[C,B,] | %7
 [D,A,]3 [D,A,] [B,,B,]2 [B,,F,B,]>[B,,F,B,] | %8
 [C,F,A,]>[C,F,A,] [C,F,C]>[C,A,] [C,G,]>[C,G,] [C,B,]>[C,B,C] |[M:3/4] [F,A,C]6 | %10
[M:1/4] [F,A,]>[F,A,C] |[M:4/4] [F,CF]>[F,CF] [F,CF]>[F,CF] [F,CF]2 [F,A,]>[F,CF] | %12
 B,,>B,, B,,>B,, B,,2 B,,>D, | [F,CF]3 [F,A,F] [F,B,F]>[F,A,F] [F,CF]>[F,A,] |[M:3/4] [C,C]6 | %15
[M:1/4] [F,A,]>[F,A,C] |[M:4/4] [F,CF]>[F,CF] [F,CF]>[F,CF] [F,CF]2 [F,A,]>[F,CF] | %17
[M:9/8] B,,>B,,B,,- B,,/B,,/ [B,,B,]2- [B,,B,][B,,B,]>[D,B,] |[M:4/4] [F,A,]>F, F,>B,, C,2 B,,2 | %19
[M:3/4] F,6 |] %20

